X:1
T:Lasso quand'havran
T:Luca Marenzio
T:Source : Il primo libro delle Villanelle a tre voci---Venetia---G.Vincenzi---1586. Editor : André Vierendeels (11/05/17).
T:Notes : Original clefs : C1, C1, F4 Editorial accidentals above the staff "Terza impressione"
T:Lasso quand'havran
T:©
T:©
C:Luca Marenzio
Z:©
%%score [ 1 2 3 ]
L:1/8
Q:1/4=120
M:4/4
K:F
V:1 treble nm="Soprano 1" snm="S 1"
V:2 treble nm="Soprano 2" snm="S 2"
V:3 bass nm="Bass" snm="B"
V:1
"^1)" B8 | A8 | B2 c4 d2 | _e2 d3 d d2 | c4 c2 d2 | B3 B c2 d2 | c4 B4 :: A8 | A4 =B4 | ^c8 | %10
w: Las-|so|quand' ha- vran|fin tan- ti so-|spi- ri, e|tan- ti miei mar-|ti- ri,|quand'|ha- vran|fin|
w: Che|quan-|do mi mi-|ra- te'ahi tri- sta-|sor- te, mi|da- te mil- le|mor- te,|e|col leg-|gia-|
 d4 B3 B | c3 c d4 | G8 | z4 c4- | c2 B2 d4- | d2 cB A4 | G8 :| %17
w: la pe- na|mia'in- fi- ni-|ta,|ca-|* ra'e dol-|* ce mia vi-|ta.|
w: dro'e'a- mo- ro-|set- to ri-|so,|da|_ voi re-|* sto di- vi-|so.|
V:2
"^2)""^1)" z4 G4- | G4 ^F4 | G2 A4 =B2 | c2 F3 F B2 | A4 A2 B2 | G3 F G2 B2 | A4 B4 ::"^#" z4 F4 | %8
w: Las-|* so|quand' ha- vran|fin tan- ti so-|spi- ri, e|tan- ti miei mar-|ti- ri,|quand'|
w: So|_ ben|si par- te|l'a- mo- ro- so|sguar- do, da|be- gli'oc- chi, pur|ar- do,|l'ar-|
 D6 E2 | E4 A4- | A4 G3 G |"^-natural" G3 A F4 | E8 | A6 G2 | G6 AG | ^F2 G4 F2 | G8 :| %17
w: ha- vran|fin la|_ pe- na|mia'in- fi- ni-|ta,|ca- ra'e|dol- ce mia|vi- * *|ta.|
w: dor a-|vam- pa'e|_ pa- to|mil- le pe-|ne,|per voi|dol- ce mia|vi- * *|ta.|
V:3
"^3)""^1)""^4)" G,,8 | D,8 | G,2 F,4 D,2 | C,2 B,,3 B,, B,,2 | F,4 F,2 D,2 | _E,3 D, C,2 B,,2 | %6
w: Las-|so|quand' ha- vran|fin tan- ti so-|spi- ri, e|tan- ti miei mar-|
w: Dun-|que|se'il lam- peg-|giar de vo- stri|ra- i, ca-|gion fu de miei|
 F,4 B,,4 :: z4 D,4 | ^F,4 G,4 | A,8 | ^F,4 G,3 G, |"^-natural" E,3 F, D,4 | C,8 | F,6 E,2 | %14
w: ti- ri,|quand'|ha- vran|fin|la pe- na|mia'in- fi- ni-|ta,|ca- ra'e|
w: gua- i,|por-|ge- te'all'|al-|m'af- flit- t'al-|cu- n'a- i-|ta,|ca- ra,|
 G,6 F,E, | D,8 | G,,8 :| %17
w: dol- ce mia|vi-|ta.|
w: dol- ce mia|vi-|ta.|

